Origami/64x64/apps/yast-ca_mgm.svg

<svg width="64" height="64" version="1.1" viewBox="0 0 64.000001 64.000001" xmlns="http://www.w3.org/2000/svg">
 <g transform="translate(0 -988.36)">
  <path d="m7 1035.9v-34.988c0-1.3845 1.1235-2.653 2.5-2.5001h19.5l6 4.9992h19.628s2.3718 0 2.3718 2.4992v29.99c0 1.3845-1.115 2.4992-2.5 2.4992h-44.999c-1.385 0-2.5-1.1146-2.5-2.4992z" fill="#9b9b9b"/>
  <path d="m33.68 1003.3-3.68 4.088h-20.5c-2.5 0-2.5 2.396-2.5 2.396v2s0-2.396 2.5-2.396h20.5l4.5-5h0.48633l-1.3066-1.0879zm22.355 1.5645c0.57756 0.4666 0.95676 1.2108 0.96289 2.0039-0.0091-1.0703-0.45872-1.6611-0.96289-2.0039z" opacity=".1"/>
  <path d="m57 1040.9v-35c0-1.385-1.1235-2.653-2.5-2.5h-20l-4.5 5h-20.5c-2.5 0-2.5 2.3959-2.5 2.3959v30.104c0 1.385 1.115 2.5 2.5 2.5h45c1.385 0 2.5-1.115 2.5-2.5z" fill="#ababab"/>
  <path transform="translate(0 988.36)" d="m34.5 15l-4.5 5h-20.5c-2.5 0-2.5 2.396-2.5 2.396v1s0-2.396 2.5-2.396h20.5l4.5-5h20c1.377-0.153 2.5 1.115 2.5 2.5v-1c0-1.385-1.123-2.653-2.5-2.5h-20z" fill="#fff" opacity=".1"/>
  <path d="m7 1040.9v1c0 1.385 1.115 2.5 2.5 2.5h45c1.385 0 2.5-1.115 2.5-2.5v-1c0 1.385-1.115 2.5-2.5 2.5h-45c-1.385 0-2.5-1.115-2.5-2.5z" opacity=".2"/>
  <path transform="translate(0 988.36)" d="m9.5 10.014c-1.3765-0.1536-2.5 1.115-2.5 2.5v1c0-1.385 1.1235-2.654 2.5-2.5h19.5l6 4.998h19.629s2.371 1e-3 2.371 2.5v-1c0-2.499-2.371-2.5-2.371-2.5h-19.629l-6-4.998h-19.5z" fill="#fff" opacity=".1"/>
 </g>
 <rect x="22" y="28" width="20" height="20" rx=".7434476" ry=".66441441" style="opacity:.00100002"/>
 <path d="m32 28c-0.338106 0-0.674891 0.033123-1.009766 0.085938-0.13336 0.020645-0.26257 0.055186-0.394531 0.083984-0.186204 0.041357-0.370945 0.084821-0.552734 0.142578-2.203285 0.687237-4.042969 2.53917-4.042969 5.492188v0.195312h4c0.170204-1.036784 1.016363-2 2-2 1.108002 0 2 0.991528 2 2.222656v1.777344h-10.667969c-0.738668 0-1.332031 0.810161-1.332031 1.601562v8.96875c0 0.7914 0.593363 1.429688 1.332031 1.429688h17.335938c0.738668 0 1.332031-0.638287 1.332031-1.429688v-8.96875c0-0.791401-0.593363-1.601562-1.332031-1.601562h-2.667969v-2.195312c0-2.953018-1.839684-4.804951-4.042969-5.492188-0.181789-0.057757-0.36653-0.101221-0.552734-0.142578-0.131961-0.028798-0.261171-0.063339-0.394531-0.083984-0.334875-0.052815-0.67166-0.085938-1.009766-0.085938z" style="opacity:.65"/>
</svg>

<?xml version="1.0" encoding="UTF-8" standalone="no"?>
<svg
   xmlns:dc="http://purl.org/dc/elements/1.1/"
   xmlns:cc="http://creativecommons.org/ns#"
   xmlns:rdf="http://www.w3.org/1999/02/22-rdf-syntax-ns#"
   xmlns:svg="http://www.w3.org/2000/svg"
   xmlns="http://www.w3.org/2000/svg"
   height="64"
   version="1.1"
   width="64"
   viewBox="0 0 64.000001 64.000001"
   id="svg2">
  <defs
     id="defs13" />
  <metadata
     id="metadata7">
    <rdf:RDF>
      <cc:Work
         rdf:about="">
        <dc:format>image/svg+xml</dc:format>
        <dc:type
           rdf:resource="http://purl.org/dc/dcmitype/StillImage" />
        <dc:title />
      </cc:Work>
    </rdf:RDF>
  </metadata>
  <g
     transform="translate(0 -988.36)"
     id="layer1">
    <path
       d="m7 1035.9v-34.988c0-1.3845 1.1235-2.653 2.5-2.5001h19.5l6 4.9992h19.628s2.3718 0 2.3718 2.4992v29.99c0 1.3845-1.115 2.4992-2.5 2.4992h-44.999c-1.385 0-2.5-1.1146-2.5-2.4992z"
       fill="#9b9b9b"
       id="path5171" />
    <path
       d="m33.68 1003.3-3.68 4.088h-20.5c-2.5 0-2.5 2.396-2.5 2.396v2s0-2.396 2.5-2.396h20.5l4.5-5h0.48633l-1.3066-1.0879zm22.355 1.5645c0.57756 0.4666 0.95676 1.2108 0.96289 2.0039-0.0091-1.0703-0.45872-1.6611-0.96289-2.0039z"
       opacity=".1"
       id="path5041" />
    <path
       d="m57 1040.9v-35c0-1.385-1.1235-2.653-2.5-2.5h-20l-4.5 5h-20.5c-2.5 0-2.5 2.3959-2.5 2.3959v30.104c0 1.385 1.115 2.5 2.5 2.5h45c1.385 0 2.5-1.115 2.5-2.5z"
       fill="#ababab"
       id="path5173" />
    <path
       fill="#fff"
       transform="translate(0 988.36)"
       d="m34.5 15l-4.5 5h-20.5c-2.5 0-2.5 2.396-2.5 2.396v1s0-2.396 2.5-2.396h20.5l4.5-5h20c1.377-0.153 2.5 1.115 2.5 2.5v-1c0-1.385-1.123-2.653-2.5-2.5h-20z"
       opacity=".1"
       id="path5029" />
    <path
       d="m7 1040.9v1c0 1.385 1.115 2.5 2.5 2.5h45c1.385 0 2.5-1.115 2.5-2.5v-1c0 1.385-1.115 2.5-2.5 2.5h-45c-1.385 0-2.5-1.115-2.5-2.5z"
       opacity=".2"
       id="path5034" />
    <path
       fill="#fff"
       transform="translate(0 988.36)"
       d="m9.5 10.014c-1.3765-0.1536-2.5 1.115-2.5 2.5v1c0-1.385 1.1235-2.654 2.5-2.5h19.5l6 4.998h19.629s2.371 0.001 2.371 2.5v-1c0-2.499-2.371-2.5-2.371-2.5h-19.629l-6-4.998h-19.5z"
       opacity=".1"
       id="path5024" />
  </g>
  <rect
     ry="0.66441441"
     rx="0.7434476"
     y="28"
     x="22"
     height="20"
     width="20"
     id="rect4141"
     style="opacity:0.00100002;fill:#000000;fill-opacity:1;stroke:none;stroke-width:2;stroke-linecap:round;stroke-linejoin:round;stroke-miterlimit:4;stroke-dasharray:none;stroke-opacity:1" />
  <path
     id="path4976"
     d="M 32 28 C 31.661894 28 31.325109 28.033123 30.990234 28.085938 C 30.856874 28.106583 30.727664 28.141124 30.595703 28.169922 C 30.409499 28.211279 30.224758 28.254743 30.042969 28.3125 C 27.839684 28.999737 26 30.85167 26 33.804688 L 26 34 L 30 34 C 30.170204 32.963216 31.016363 32 32 32 C 33.108002 32 34 32.991528 34 34.222656 L 34 36 L 32 36 L 30 36 L 26 36 L 24 36 L 23.332031 36 C 22.593363 36 22 36.810161 22 37.601562 L 22 46.570312 C 22 47.361712 22.593363 48 23.332031 48 L 40.667969 48 C 41.406637 48 42 47.361713 42 46.570312 L 42 37.601562 C 42 36.810161 41.406637 36 40.667969 36 L 38 36 L 38 33.804688 C 38 30.85167 36.160316 28.999737 33.957031 28.3125 C 33.775242 28.254743 33.590501 28.211279 33.404297 28.169922 C 33.272336 28.141124 33.143126 28.106583 33.009766 28.085938 C 32.674891 28.033123 32.338106 28 32 28 z "
     style="color:#000000;opacity:0.65;fill:#000000;fill-opacity:1" />
</svg>
